!!!SOCIAL_FUNCTION:	potlatch songs
!!!PDT:	1939
!!!OTL: No_18_Song_Before_Distribution_of_Gifts_(b).krn
!!!LANG: Non-Tone
!!!LING_GROUP: Wakashan
!!!REG: Pacific Northwest
**kern
*staff1
=1-
*clefF4
*k[]
*M2/4
{8.c\L
16d\Jk
12c\L
12A\
12A\J
=2
12c\L
12A\
12G\J
8G\}
8r
=3||
*M3/4
{12E\L
12G\
12G\J
16c\LK
8.A\J
8A\L
8G\J
=4||
*M2/4
12A\L
12G\
12G\J
8G\}
8r
=5
{12E\L
12G\
12G\J
4G\
=6
8G\
8r
16G\LL
16G\JJ
8r
=7
4G\
4G\
=8
16A\LK
8.G\J
8G\}
8r
=9||
*M3/4
{12E\L
12G\
24G\Jk
24r
16c\LK
8.A\J
8A\L
8G\J
=10||
*M2/4
12A\L
12G\
12G\J
8G\}
8r
=11
{12E\L
12G\
12G\J
4G\
=12
4G\
16A\LL
16A\JJ
8r
=13
8.B\L
16c\Jk
12B\L
12A\
12G\J
=14
12B\L
12A\
12G\J
8G\}
8r
=15||
*M3/4
{12E\L
12G\
12G\J
16c\LK
8.A\J
16A\LK
8.G\J
=16||
*M2/4
12A\L
12G\
12G\J
8G\}
8r
=17
{12E\L
12G\
12G\J
16A\LK
8.G\J
=18
8G\
8r
16G\LL
16G\JJ}
8r
=19
{4G\
4G\
=20
16A\LK
8.G\J
8G\
8r
=21||
8.E\L
16G\Jk
8.G\L
16G\Jk
=22
8.c\L
16A\Jk
8.A\L
16G\Jk
=23
12A\L
12G\
12G\J
8G\}
8r
=24
{12E\L
12G\
12G\J
16A\LK
8.G\J
=25
8G\
8r
16G\LL
16G\JJ}
8r
=26
{4G\
4G\
=27
16A\LK
8.G\J
8G\}
8r
=28:|!
{8.E\L
16G\Jk
8.G\L
16G\Jk
=29||
*M3/4
8.B\L
16A\Jk
8.A\L
16A\Jk
4G\
=30||
*M2/4
12B\L
12A\
12G\J
4G\
=31
12E\L
12G\
12G\J
16A\LK
8.G\J
=32
4G\}
8r
{16G\LL
16G\JJ
=33
4G\
4G\
=34
16A\LK
8.G\J
8G\}
8r
==
*-
